symbols/web/phonelink_lock/materialsymbolsoutlined/phonelink_lock_wght200gradN25_24px.svg

<svg xmlns="http://www.w3.org/2000/svg" height="24" width="24"><path d="M15.575 15.6q-.35 0-.625-.275t-.275-.625v-2.675q0-.35.275-.625t.625-.275h.125v-1q0-.75.5-1.238.5-.487 1.225-.487.75 0 1.25.487.5.488.5 1.238v1h.125q.35 0 .6.275t.25.625V14.7q0 .35-.275.625t-.625.275Zm.875-4.475h1.975v-1q0-.425-.287-.713-.288-.287-.713-.287-.4 0-.687.287-.288.288-.288.713ZM7.65 21.85q-.625 0-1.075-.45-.45-.45-.45-1.1V3.7q0-.65.45-1.1.45-.45 1.075-.45h8.7q.625 0 1.075.45.45.45.45 1.1v3.2h-.925V5.525h-9.9v12.95h9.9V17.1h.925v3.2q0 .65-.45 1.1-.45.45-1.075.45Zm-.6-2.45v.9q0 .25.188.438.187.187.412.187h8.7q.225 0 .412-.187.188-.188.188-.438v-.9Zm0-14.8h9.9v-.9q0-.25-.188-.438-.187-.187-.412-.187h-8.7q-.225 0-.412.187-.188.188-.188.438Zm0-1.525V4.6 3.075Zm0 17.85V19.4 20.925Z"/></svg>

<svg xmlns="http://www.w3.org/2000/svg" height="24" width="24"><path d="M15.575 15.6Q15.225 15.6 14.95 15.325Q14.675 15.05 14.675 14.7V12.025Q14.675 11.675 14.95 11.4Q15.225 11.125 15.575 11.125H15.7V10.125Q15.7 9.375 16.2 8.887Q16.7 8.4 17.425 8.4Q18.175 8.4 18.675 8.887Q19.175 9.375 19.175 10.125V11.125H19.3Q19.65 11.125 19.9 11.4Q20.15 11.675 20.15 12.025V14.7Q20.15 15.05 19.875 15.325Q19.6 15.6 19.25 15.6ZM16.45 11.125H18.425V10.125Q18.425 9.7 18.138 9.412Q17.85 9.125 17.425 9.125Q17.025 9.125 16.738 9.412Q16.45 9.7 16.45 10.125ZM7.65 21.85Q7.025 21.85 6.575 21.4Q6.125 20.95 6.125 20.3V3.7Q6.125 3.05 6.575 2.6Q7.025 2.15 7.65 2.15H16.35Q16.975 2.15 17.425 2.6Q17.875 3.05 17.875 3.7V6.9H16.95V5.525H7.05V18.475H16.95V17.1H17.875V20.3Q17.875 20.95 17.425 21.4Q16.975 21.85 16.35 21.85ZM7.05 19.4V20.3Q7.05 20.55 7.238 20.738Q7.425 20.925 7.65 20.925H16.35Q16.575 20.925 16.762 20.738Q16.95 20.55 16.95 20.3V19.4ZM7.05 4.6H16.95V3.7Q16.95 3.45 16.762 3.262Q16.575 3.075 16.35 3.075H7.65Q7.425 3.075 7.238 3.262Q7.05 3.45 7.05 3.7ZM7.05 3.075Q7.05 3.075 7.05 3.25Q7.05 3.425 7.05 3.7V4.6V3.7Q7.05 3.425 7.05 3.25Q7.05 3.075 7.05 3.075ZM7.05 20.925Q7.05 20.925 7.05 20.75Q7.05 20.575 7.05 20.3V19.4V20.3Q7.05 20.575 7.05 20.75Q7.05 20.925 7.05 20.925Z"/></svg>
